teeny/solid/ab-testing.svg

<svg width="15" height="15" viewBox="0 0 15 15" fill="none" xmlns="http://www.w3.org/2000/svg">
<path d="M3.5 5C2.67157 5 2 5.67157 2 6.5V8H5V6.5C5 5.67157 4.32843 5 3.5 5Z" fill="black"/>
<path fill-rule="evenodd" clip-rule="evenodd" d="M0 2.5C0 1.67157 0.671573 1 1.5 1H5.5C6.32843 1 7 1.67157 7 2.5V12.5C7 13.3284 6.32843 14 5.5 14H1.5C0.671573 14 0 13.3284 0 12.5V2.5ZM2 11V9H5V11H6V6.5C6 5.11929 4.88071 4 3.5 4C2.11929 4 1 5.11929 1 6.5V11H2Z" fill="black"/>
<path d="M12 7H10V5H12C12.5523 5 13 5.44772 13 6C13 6.55228 12.5523 7 12 7Z" fill="black"/>
<path d="M12 10H10V8H12C12.5523 8 13 8.44772 13 9C13 9.55228 12.5523 10 12 10Z" fill="black"/>
<path fill-rule="evenodd" clip-rule="evenodd" d="M8 2.5C8 1.67157 8.67157 1 9.5 1H13.5C14.3284 1 15 1.67157 15 2.5V12.5C15 13.3284 14.3284 14 13.5 14H9.5C8.67157 14 8 13.3284 8 12.5V2.5ZM12 4H9V11H12C13.1046 11 14 10.1046 14 9C14 8.40265 13.7381 7.86647 13.3229 7.5C13.7381 7.13353 14 6.59735 14 6C14 4.89543 13.1046 4 12 4Z" fill="black"/>
</svg>

<svg viewBox="0 0 15 15" xmlns="http://www.w3.org/2000/svg"><g><path d="M3.5 5C2.67 5 2 5.67 2 6.5V8h3V6.5C5 5.67 4.32 5 3.5 5Z"/><path fill-rule="evenodd" d="M0 2.5C0 1.67.67 1 1.5 1h4C6.32 1 7 1.67 7 2.5v10c0 .82-.68 1.5-1.5 1.5h-4C.67 14 0 13.32 0 12.5v-10ZM2 11V9h3v2h1V6.5C6 5.11 4.88 4 3.5 4 2.11 4 1 5.11 1 6.5V11h1Z"/><path d="M12 7h-2V5h2c.55 0 1 .44 1 1 0 .55-.45 1-1 1Z"/><path d="M12 10h-2V8h2c.55 0 1 .44 1 1 0 .55-.45 1-1 1Z"/><path fill-rule="evenodd" d="M8 2.5C8 1.67 8.67 1 9.5 1h4c.82 0 1.5.67 1.5 1.5v10c0 .82-.68 1.5-1.5 1.5h-4c-.83 0-1.5-.68-1.5-1.5v-10ZM12 4H9v7h3c1.1 0 2-.9 2-2 0-.6-.27-1.14-.68-1.5 .41-.37.67-.91.67-1.5 0-1.11-.9-2-2-2Z"/></g></svg>
